auto-favorites/_inc/system.svg

<?xml version="1.0" encoding="UTF-8" standalone="no"?>
<svg width="97px" height="18px" viewBox="0 0 97 18" version="1.1" xmlns="http://www.w3.org/2000/svg" xmlns:xlink="http://www.w3.org/1999/xlink">
    <!-- Generator: Sketch 45 (43475) - http://www.bohemiancoding.com/sketch -->
    <title>system</title>
    <desc>Created with Sketch.</desc>
    <defs></defs>
    <g id="Page-1" stroke="none" stroke-width="1" fill="none" fill-rule="evenodd">
        <g id="system">
            <path d="M89.0409225,4.4824996 C89.7592637,3.57917864 90.8678115,3 92.1116244,3 C94.2771043,3 96.0327009,4.75550158 96.0327009,6.92107646 C96.0327009,11.4442401 89.0301812,13.3344366 89.0301812,15.4999165 L89.0261888,15.5079012 C89.0262838,13.0968907 82,10.8896811 82,6.92107646 C82,4.75550158 83.7555016,3 85.9210765,3 C87.1806688,3 88.3015739,3.59400744 89.0189645,4.51700507 L89.0409225,4.4824996" id="Shape" fill="#BBA358" fill-rule="nonzero"></path>
            <path d="M0.5,17.5 L4.5,0.5" id="Shape" stroke="#867740" stroke-linecap="round"></path>
            <path d="M15.112,5.936 L10.87,5.936 L10.87,8.022 L14.146,8.022 L14.146,9.758 L10.87,9.758 L10.87,14 L9.078,14 L9.078,4.2 L15.112,4.2 L15.112,5.936 Z M23.316,14 L21.454,14 L20.614,11.634 L17.352,11.634 L16.512,14 L14.65,14 L18.136,4.2 L19.83,4.2 L23.316,14 Z M19.998,9.898 L18.976,7.028 L17.968,9.898 L19.998,9.898 Z M31.898,4.2 L28.454,14 L26.27,14 L22.742,4.2 L24.604,4.2 L27.348,11.634 L30.05,4.2 L31.898,4.2 Z M37.106,14.196 C35.6873262,14.196 34.5276712,13.7270047 33.627,12.789 C32.7263288,11.8509953 32.276,10.6213409 32.276,9.1 C32.276,7.57865906 32.7263288,6.34900469 33.627,5.411 C34.5276712,4.47299531 35.6873262,4.004 37.106,4.004 C38.5246738,4.004 39.6843288,4.47299531 40.585,5.411 C41.4856712,6.34900469 41.936,7.57865906 41.936,9.1 C41.936,10.6213409 41.4856712,11.8509953 40.585,12.789 C39.6843288,13.7270047 38.5246738,14.196 37.106,14.196 Z M37.106,5.726 C36.1819954,5.726 35.4726691,6.03399692 34.978,6.65 C34.4833309,7.26600308 34.236,8.08266158 34.236,9.1 C34.236,10.1173384 34.4833309,10.9339969 34.978,11.55 C35.4726691,12.1660031 36.1819954,12.474 37.106,12.474 C38.0300046,12.474 38.7393309,12.1660031 39.234,11.55 C39.7286691,10.9339969 39.976,10.1173384 39.976,9.1 C39.976,8.08266158 39.7286691,7.26600308 39.234,6.65 C38.7393309,6.03399692 38.0300046,5.726 37.106,5.726 Z M51.008,14 L49.146,14 L47.116,10.36 L45.296,10.36 L45.296,14 L43.504,14 L43.504,4.2 L47.088,4.2 C49.3373446,4.2 50.462,5.14265724 50.462,7.028 C50.462,7.7280035 50.3173348,8.29733114 50.028,8.736 C49.7386652,9.17466886 49.3280027,9.5573317 48.796,9.884 L51.008,14 Z M46.682,5.698 L45.296,5.698 L45.296,8.68 L46.612,8.68 C47.3680038,8.68 47.8859986,8.54933464 48.166,8.288 C48.4460014,8.02666536 48.586,7.64866914 48.586,7.154 C48.586,6.65933086 48.450668,6.29300119 48.18,6.055 C47.909332,5.81699881 47.4100036,5.698 46.682,5.698 Z M54.06,14 L52.268,14 L52.268,4.2 L54.06,4.2 L54.06,14 Z M62.684,5.936 L59.912,5.936 L59.912,14 L58.12,14 L58.12,5.936 L55.348,5.936 L55.348,4.2 L62.684,4.2 L62.684,5.936 Z M70.384,14 L63.972,14 L63.972,4.2 L70.244,4.2 L70.244,5.936 L65.806,5.936 L65.806,8.022 L69.25,8.022 L69.25,9.758 L65.806,9.758 L65.806,12.264 L70.384,12.264 L70.384,14 Z M74.766,14.196 C74.0659965,14.196 73.4266696,14.1260007 72.848,13.986 C72.2693304,13.8459993 71.8260015,13.678001 71.518,13.482 L71.728,11.438 C72.0266682,11.7273348 72.4443306,11.9723323 72.981,12.173 C73.5176694,12.3736677 74.1266633,12.474 74.808,12.474 C75.9746725,12.474 76.558,12.1193369 76.558,11.41 C76.558,11.213999 76.5113338,11.0366675 76.418,10.878 C76.3246662,10.7193325 76.2243339,10.5886672 76.117,10.486 C76.0096661,10.3833328 75.8300013,10.2736672 75.578,10.157 C75.3259987,10.0403328 75.1300007,9.95633359 74.99,9.905 C74.8499993,9.85366641 74.6120017,9.77200056 74.276,9.66 C73.9866652,9.5666662 73.7860006,9.4966669 73.674,9.45 L73.114,9.212 C72.8526654,9.10933282 72.6613339,9.01833373 72.54,8.939 C72.4186661,8.85966627 72.2693342,8.74766739 72.092,8.603 C71.9146658,8.45833261 71.7840004,8.31133408 71.7,8.162 C71.6159996,8.01266592 71.5413337,7.83300105 71.476,7.623 C71.4106663,7.41299895 71.378,7.18666788 71.378,6.944 C71.378,6.17866284 71.6673304,5.49733632 72.246,4.9 C72.8246696,4.30266368 73.715994,4.004 74.92,4.004 C75.5453365,4.004 76.1496638,4.08333254 76.733,4.242 C77.3163363,4.40066746 77.7526652,4.5733324 78.042,4.76 L77.86,6.594 C76.7866613,6.00599706 75.8300042,5.712 74.99,5.712 C74.5139976,5.712 74.0963351,5.79133254 73.737,5.95 C73.3776649,6.10866746 73.198,6.3746648 73.198,6.748 C73.198,7.10266844 73.3613317,7.37566571 73.688,7.567 C74.0146683,7.75833429 74.50933,7.95666564 75.172,8.162 C75.5173351,8.26466718 75.7809991,8.34866634 75.963,8.414 C76.1450009,8.47933366 76.3946651,8.57733268 76.712,8.708 C77.0293349,8.83866732 77.2766658,8.97633261 77.454,9.121 C77.6313342,9.26566739 77.8156657,9.44299895 78.007,9.653 C78.1983343,9.86300105 78.3383329,10.1103319 78.427,10.395 C78.5156671,10.6796681 78.56,10.9946649 78.56,11.34 C78.56,11.6013346 78.5366669,11.8463322 78.49,12.075 C78.4433331,12.3036678 78.3383342,12.553332 78.175,12.824 C78.0116658,13.094668 77.7970013,13.3256657 77.531,13.517 C77.2649987,13.7083343 76.8963357,13.8693327 76.425,14 C75.9536643,14.1306673 75.4006698,14.196 74.766,14.196 Z" id="FAVORITES-Copy" fill="#FFFFFF"></path>
        </g>
    </g>
</svg>

<?xml version="1.0" encoding="UTF-8" standalone="no"?>
<svg
   xmlns:dc="http://purl.org/dc/elements/1.1/"
   xmlns:cc="http://creativecommons.org/ns#"
   xmlns:rdf="http://www.w3.org/1999/02/22-rdf-syntax-ns#"
   xmlns:svg="http://www.w3.org/2000/svg"
   xmlns="http://www.w3.org/2000/svg"
   xmlns:sodipodi="http://sodipodi.sourceforge.net/DTD/sodipodi-0.dtd"
   xmlns:inkscape="http://www.inkscape.org/namespaces/inkscape"
   width="99"
   height="18"
   viewBox="0 0 99 18"
   version="1.1"
   id="svg14"
   sodipodi:docname="system.svg"
   inkscape:version="0.92.3 (2405546, 2018-03-11)">
  <metadata
     id="metadata18">
    <rdf:RDF>
      <cc:Work
         rdf:about="">
        <dc:format>image/svg+xml</dc:format>
        <dc:type
           rdf:resource="http://purl.org/dc/dcmitype/StillImage" />
        <dc:title>system</dc:title>
        <dc:title>system</dc:title>
      </cc:Work>
    </rdf:RDF>
  </metadata>
  <sodipodi:namedview
     pagecolor="#ffffff"
     bordercolor="#666666"
     borderopacity="1"
     objecttolerance="10"
     gridtolerance="10"
     guidetolerance="10"
     inkscape:pageopacity="0"
     inkscape:pageshadow="2"
     inkscape:window-width="933"
     inkscape:window-height="1018"
     id="namedview16"
     showgrid="false"
     inkscape:zoom="3.0721649"
     inkscape:cx="52.556865"
     inkscape:cy="9"
     inkscape:window-x="985"
     inkscape:window-y="31"
     inkscape:window-maximized="0"
     inkscape:current-layer="svg14" />
  <!-- Generator: Sketch 45 (43475) - http://www.bohemiancoding.com/sketch -->
  <title
     id="title2">system</title>
  <desc
     id="desc4">Created with Sketch.</desc>
  <defs
     id="defs6" />
  <g
     id="Page-1"
     style="fill:none;fill-rule:evenodd;stroke:none;stroke-width:1">
    <g
       id="system">
      <path
         d="M 91.040922,4.4824996 C 91.759264,3.5791786 92.867812,3 94.111624,3 c 2.16548,0 3.921077,1.7555016 3.921077,3.9210765 0,4.5231635 -7.00252,6.4133605 -7.00252,8.5788395 l -0.004,0.008 C 91.026284,13.096891 84,10.889681 84,6.9210765 84,4.7555016 85.755502,3 87.921076,3 c 1.259593,0 2.380498,0.5940074 3.097888,1.5170051 l 0.02196,-0.034506"
         id="Shape"
         style="fill:#b34222;fill-opacity:1;fill-rule:nonzero"
         inkscape:connector-curvature="0"
         sodipodi:nodetypes="cssccsscc" />
      <path
         d="m 0.5,17.5 4,-17"
         id="path9"
         inkscape:connector-curvature="0"
         style="stroke:#867740;stroke-linecap:round" />
      <path
         d="M 15.112,5.936 H 10.87 v 2.086 h 3.276 V 9.758 H 10.87 V 14 H 9.078 V 4.2 h 6.034 z M 23.316,14 h -1.862 l -0.84,-2.366 H 17.352 L 16.512,14 H 14.65 L 18.136,4.2 H 19.83 Z M 19.998,9.898 18.976,7.028 17.968,9.898 Z M 31.898,4.2 28.454,14 H 26.27 L 22.742,4.2 h 1.862 L 27.348,11.634 30.05,4.2 Z m 5.208,9.996 c -1.418674,0 -2.578329,-0.468995 -3.479,-1.407 -0.900671,-0.938005 -1.351,-2.167659 -1.351,-3.689 0,-1.5213409 0.450329,-2.7509953 1.351,-3.689 0.900671,-0.9380047 2.060326,-1.407 3.479,-1.407 1.418674,0 2.578329,0.4689953 3.479,1.407 0.900671,0.9380047 1.351,2.1676591 1.351,3.689 0,1.521341 -0.450329,2.750995 -1.351,3.689 -0.900671,0.938005 -2.060326,1.407 -3.479,1.407 z m 0,-8.47 c -0.924005,0 -1.633331,0.3079969 -2.128,0.924 -0.494669,0.6160031 -0.742,1.4326616 -0.742,2.45 0,1.017338 0.247331,1.833997 0.742,2.45 0.494669,0.616003 1.203995,0.924 2.128,0.924 0.924005,0 1.633331,-0.307997 2.128,-0.924 0.494669,-0.616003 0.742,-1.432662 0.742,-2.45 0,-1.0173384 -0.247331,-1.8339969 -0.742,-2.45 C 38.739331,6.0339969 38.030005,5.726 37.106,5.726 Z M 51.008,14 h -1.862 l -2.03,-3.64 h -1.82 V 14 H 43.504 V 4.2 h 3.584 c 2.249345,0 3.374,0.9426572 3.374,2.828 0,0.7000035 -0.144665,1.2693311 -0.434,1.708 -0.289335,0.4386689 -0.699997,0.8213317 -1.232,1.148 z M 46.682,5.698 H 45.296 V 8.68 h 1.316 c 0.756004,0 1.273999,-0.1306654 1.554,-0.392 0.280001,-0.2613346 0.42,-0.6393309 0.42,-1.134 0,-0.4946691 -0.135332,-0.8609988 -0.406,-1.099 C 47.909332,5.8169988 47.410004,5.698 46.682,5.698 Z M 54.06,14 H 52.268 V 4.2 H 54.06 Z M 62.684,5.936 H 59.912 V 14 H 58.12 V 5.936 H 55.348 V 4.2 h 7.336 z M 70.384,14 H 63.972 V 4.2 h 6.272 v 1.736 h -4.438 v 2.086 h 3.444 v 1.736 h -3.444 v 2.506 h 4.578 z m 4.382,0.196 c -0.700004,0 -1.33933,-0.07 -1.918,-0.21 -0.57867,-0.140001 -1.021998,-0.307999 -1.33,-0.504 l 0.21,-2.044 c 0.298668,0.289335 0.716331,0.534332 1.253,0.735 0.536669,0.200668 1.145663,0.301 1.827,0.301 1.166672,0 1.75,-0.354663 1.75,-1.064 0,-0.196001 -0.04667,-0.373332 -0.14,-0.532 C 76.32467,10.719333 76.224334,10.588667 76.117,10.486 76.009666,10.383333 75.830001,10.273667 75.578,10.157 75.325999,10.040333 75.130001,9.9563336 74.99,9.905 74.849999,9.8536664 74.612002,9.7720006 74.276,9.66 73.986665,9.5666662 73.786001,9.4966669 73.674,9.45 L 73.114,9.212 C 72.852665,9.1093328 72.661334,9.0183337 72.54,8.939 72.418666,8.8596663 72.269334,8.7476674 72.092,8.603 71.914666,8.4583326 71.784,8.3113341 71.7,8.162 71.616,8.0126659 71.541334,7.833001 71.476,7.623 71.410666,7.412999 71.378,7.1866679 71.378,6.944 c 0,-0.7653372 0.28933,-1.4466637 0.868,-2.044 0.57867,-0.5973363 1.469994,-0.896 2.674,-0.896 0.625337,0 1.229664,0.079333 1.813,0.238 0.583336,0.1586675 1.019665,0.3313324 1.309,0.518 L 77.86,6.594 C 76.786661,6.0059971 75.830004,5.712 74.99,5.712 c -0.476002,0 -0.893665,0.079333 -1.253,0.238 -0.359335,0.1586675 -0.539,0.4246648 -0.539,0.798 0,0.3546684 0.163332,0.6276657 0.49,0.819 0.326668,0.1913343 0.82133,0.3896656 1.484,0.595 0.345335,0.1026672 0.608999,0.1866663 0.791,0.252 0.182001,0.065334 0.431665,0.1633327 0.749,0.294 0.317335,0.1306673 0.564666,0.2683326 0.742,0.413 0.177334,0.1446674 0.361666,0.321999 0.553,0.532 0.191334,0.210001 0.331333,0.457332 0.42,0.742 0.08867,0.284668 0.133,0.599665 0.133,0.945 0,0.261335 -0.02333,0.506332 -0.07,0.735 -0.04667,0.228668 -0.151666,0.478332 -0.315,0.749 -0.163334,0.270668 -0.377999,0.501666 -0.644,0.693 -0.266001,0.191334 -0.634664,0.352333 -1.106,0.483 -0.471336,0.130667 -1.02433,0.196 -1.659,0.196 z"
         id="FAVORITES-Copy"
         inkscape:connector-curvature="0"
         style="fill:#ffffff" />
    </g>
  </g>
</svg>
